src/images/common/convenience/convenience-icon.svg

<svg width="50" height="50" viewBox="0 0 50 50" fill="none" xmlns="http://www.w3.org/2000/svg">
<path d="M12.0968 12.9032C12.5422 12.9032 12.9032 12.5422 12.9032 12.0968C12.9032 11.6514 12.5422 11.2903 12.0968 11.2903C11.6514 11.2903 11.2903 11.6514 11.2903 12.0968C11.2903 12.5422 11.6514 12.9032 12.0968 12.9032Z" fill="#DE383F"/>
<path d="M16.9355 12.9032C17.3809 12.9032 17.7419 12.5422 17.7419 12.0968C17.7419 11.6514 17.3809 11.2903 16.9355 11.2903C16.4901 11.2903 16.129 11.6514 16.129 12.0968C16.129 12.5422 16.4901 12.9032 16.9355 12.9032Z" fill="#DE383F"/>
<path d="M17.5806 15.0806L17.6613 14.9194L16.2097 14.1935L16.129 14.3548C15.8065 15 15.2419 15.3226 14.5161 15.3226C13.7903 15.3226 13.2258 14.9194 12.9032 14.3548L12.8226 14.1935L11.371 14.9194L11.4516 15.0806C12.0161 16.2097 13.2258 16.9355 14.5161 16.9355C15.8065 16.9355 17.0161 16.2097 17.5806 15.0806Z" fill="#DE383F"/>
<path d="M33.0645 12.9032C33.5099 12.9032 33.871 12.5422 33.871 12.0968C33.871 11.6514 33.5099 11.2903 33.0645 11.2903C32.6191 11.2903 32.2581 11.6514 32.2581 12.0968C32.2581 12.5422 32.6191 12.9032 33.0645 12.9032Z" fill="#DE383F"/>
<path d="M37.9032 12.9032C38.3486 12.9032 38.7097 12.5422 38.7097 12.0968C38.7097 11.6514 38.3486 11.2903 37.9032 11.2903C37.4578 11.2903 37.0968 11.6514 37.0968 12.0968C37.0968 12.5422 37.4578 12.9032 37.9032 12.9032Z" fill="#DE383F"/>
<path d="M37.0968 14.3548C36.7742 15 36.2097 15.3226 35.4839 15.3226C34.7581 15.3226 34.1936 14.9194 33.871 14.3548L33.7903 14.1935L32.3387 14.9194L32.4194 15.0806C32.9839 16.2097 34.1936 16.9355 35.4839 16.9355C36.7742 16.9355 37.9839 16.2097 38.5484 15.0806L38.629 14.9194L37.1774 14.1935L37.0968 14.3548Z" fill="#DE383F"/>
<path d="M50 30.2419C50 29.8387 49.9194 29.5161 49.7581 29.1129L48.7903 26.9355C47.9839 25.1613 46.5323 23.7097 44.7581 22.9839C45 22.5 45.1613 21.9355 45.1613 21.371V9.67742C45.1613 4.35484 40.8065 0 35.4839 0C30.1613 0 25.8065 4.35484 25.8065 9.67742V21.371C25.8065 21.6935 25.8871 21.9355 25.8871 22.1774C25.5645 22.3387 25.2419 22.5 25 22.6613C24.0323 22.0968 22.9032 21.6129 21.7742 21.4516L18.3871 20.9677L17.9032 19.1129C19.2742 18.2258 20.3226 16.8548 20.7258 15.2419H20.9677C22.7419 15.2419 24.1935 13.7903 24.1935 12.0161C24.1935 11.2903 23.9516 10.5645 23.4677 10L24.0323 7.82258C24.1129 7.58065 24.1935 7.17742 24.1935 6.77419C24.1935 4.75806 22.9839 2.98387 21.0484 2.33871L15.7258 0.403226C15 0.16129 14.2742 0 13.4677 0C11.371 0 9.35484 1.04839 8.06452 2.74194L7.66129 3.22581C6.04839 3.46774 4.83871 4.83871 4.83871 6.45161C4.83871 7.74194 5.32258 9.35484 5.56452 10.0806C5.08065 10.6452 4.83871 11.371 4.83871 12.0968C4.83871 13.871 6.29032 15.3226 8.06452 15.3226H8.30645C8.70968 16.9355 9.75806 18.3065 11.129 19.1935L10.6452 21.0484L7.25806 21.5323C6.04839 21.6936 4.83871 22.1774 3.79032 22.9032C1.37097 24.4355 0 27.0968 0 29.9194V35.4839C0 36.371 0.725806 37.0968 1.6129 37.0968H2.25806L3.22581 41.6129V50H44.5161L43.871 46.9355C43.871 46.7742 43.7903 46.5323 43.7903 46.371C45.1613 45.8065 46.2903 44.5161 46.6129 42.9839L48.9516 32.4194C49.5968 31.8548 50 31.129 50 30.2419ZM47.3387 27.5806L48.3065 29.7581C48.3871 29.9194 48.3871 30.0806 48.3871 30.2419C48.3871 30.8871 47.8226 31.4516 47.1774 31.4516H47.0161C46.6129 31.4516 46.2097 31.2903 46.0484 30.8871L44.7581 29.0323H43.9516C43.0645 29.0323 42.2581 28.4677 42.0161 27.5806C41.9355 27.4194 41.9355 27.1774 41.9355 26.9355V25C42.5806 24.9194 43.2258 24.6774 43.7097 24.3548C45.3226 24.7581 46.6936 25.9677 47.3387 27.5806ZM40.5645 39.1935L34.5968 36.5323L34.3548 35.4032C34.0323 34.0323 32.7419 33.0645 31.371 33.0645C30.2419 33.0645 29.2742 33.629 28.7097 34.5968L28.2258 34.5161C27.9839 34.4355 27.7419 34.4355 27.5 34.4355C27.4194 34.0323 27.4194 33.5484 27.4194 33.0645C27.4194 31.0484 27.9839 29.1935 29.0323 27.5L30.7258 24.7581C30.8871 24.6774 31.0484 24.6774 31.129 24.5968C32.2581 25.8871 33.7903 26.6129 35.4839 26.6129C37.1774 26.6129 38.7097 25.8871 39.8387 24.5968C40 24.6774 40.1613 24.7581 40.3226 24.8387V27.0161C40.3226 27.4194 40.4032 27.8226 40.4839 28.1452C40.8065 29.1129 41.5323 29.9194 42.4194 30.3226L40.5645 39.1935ZM35.4839 18.5484C32.8226 18.5484 30.6452 16.371 30.6452 13.7097V10.3226C32.5806 9.91936 34.3548 9.1129 35.8871 7.90323C37.0968 9.1129 38.629 10 40.3226 10.4032V13.7097C40.3226 16.371 38.1452 18.5484 35.4839 18.5484ZM35.4839 20.1613C36.129 20.1613 36.6935 20.0806 37.3387 19.9194L37.5806 21.5323C37.6613 22.3387 38.0645 23.0645 38.5484 23.629C37.7419 24.5161 36.6129 25 35.4839 25C34.3548 25 33.2258 24.5161 32.4194 23.629C32.9032 23.0645 33.3065 22.3387 33.3871 21.5323L33.629 19.9194C34.2742 20.0806 34.8387 20.1613 35.4839 20.1613ZM43.5484 9.67742V21.371C43.5484 22.5 42.6613 23.3871 41.5323 23.3871C40.3226 23.3871 39.2742 22.5 39.1129 21.2903L38.7903 19.1935C40.6452 18.0645 41.8548 16.0484 41.8548 13.7097V8.95161L41.2097 8.87097C38.1452 8.46774 35.7258 6.12903 35.1613 3.14516L34.8387 1.6129C35.0806 1.6129 35.2419 1.6129 35.4839 1.6129C39.9194 1.6129 43.5484 5.24194 43.5484 9.67742ZM27.4194 9.67742C27.4194 5.96774 29.9194 2.90323 33.3064 1.93548L33.629 3.46774C33.871 4.59677 34.3548 5.72581 34.9194 6.6129C33.629 7.66129 32.0161 8.3871 30.4032 8.70968L29.0323 9.03226V13.7097C29.0323 16.0484 30.2419 18.0645 32.0968 19.1935L31.7742 21.2903C31.6129 22.5 30.5645 23.3871 29.3548 23.3871C28.2258 23.3871 27.3387 22.5 27.3387 21.371V9.67742H27.4194ZM26.6129 23.629C27.0968 24.2742 27.8226 24.7581 28.7097 24.9194L27.6613 26.6129C26.4516 28.5484 25.8065 30.8065 25.8065 33.0645C25.8065 33.629 25.8871 34.2742 25.9677 34.8387C25.8065 34.9194 25.6452 35.0806 25.4839 35.1613C25.4032 35.1613 25.4032 35.2419 25.4032 35.2419C25.2419 34.9194 24.9194 34.5968 24.6774 34.3548C24.1129 33.871 23.3871 33.629 22.6613 33.629V29.8387C22.6613 27.5806 23.7903 25.4032 25.7258 24.1935C25.9677 24.0323 26.2903 23.7903 26.6129 23.629ZM27.3387 41.2903C27.4194 41.9355 27.4194 42.5806 27.4194 43.1452C27.4194 44.4355 27.2581 45.7258 27.0161 46.9355L26.7742 48.3871H22.5806V40.5645L23.7097 40.0806C24.0323 39.9194 24.3548 39.7581 24.5968 39.5161C24.9194 40.1613 25.4839 40.6452 26.2097 40.8871L27.3387 41.2903ZM18.4677 22.6613L17.9839 26.0484L15.8871 24.7581L18.0645 22.5806L18.4677 22.6613ZM20.9677 13.7097V10.4839C21.8548 10.4839 22.5806 11.2097 22.5806 12.0968C22.5806 12.9839 21.8548 13.7097 20.9677 13.7097ZM8.06452 4.83871H8.46774L9.35484 3.70968C10.3226 2.41935 11.8548 1.6129 13.4677 1.6129C14.0323 1.6129 14.6774 1.69355 15.2419 1.93548L20.5645 3.87097C21.7742 4.27419 22.5806 5.48387 22.5806 6.77419C22.5806 7.01613 22.5806 7.25806 22.5 7.5L22.0968 9.03226C21.6935 8.95161 21.371 8.87097 20.9677 8.87097H17.9032C16.2097 8.87097 14.5968 8.30645 13.3065 7.25806C13.3871 7.09677 13.4677 6.85484 13.4677 6.6129L13.7097 5.80645L12.0968 5.48387L11.9355 6.37097C11.6129 7.82258 10.3226 8.87097 8.87097 8.87097H8.06452C7.66129 8.87097 7.25806 8.95161 6.93548 9.1129C6.69355 8.3871 6.45161 7.25806 6.45161 6.45161C6.45161 5.56452 7.17742 4.83871 8.06452 4.83871ZM6.45161 12.0968C6.45161 11.2097 7.17742 10.4839 8.06452 10.4839V13.7097C7.17742 13.7097 6.45161 12.9839 6.45161 12.0968ZM9.67742 13.7097V10.4032C10.8065 10.2419 11.8548 9.59677 12.5806 8.70968C14.1129 9.83871 16.0484 10.4839 17.9839 10.4839H19.3548V13.7097C19.3548 16.371 17.1774 18.5484 14.5161 18.5484C11.8548 18.5484 9.67742 16.371 9.67742 13.7097ZM14.5161 20.1613C15.1613 20.1613 15.8065 20.0806 16.4516 19.8387L16.8548 21.5323L14.5161 23.871L12.1774 21.5323L12.5806 19.8387C13.2258 20.0806 13.871 20.1613 14.5161 20.1613ZM10.9677 22.6613L13.1452 24.8387L11.0484 26.129L10.5645 22.7419L10.9677 22.6613ZM1.6129 29.9194C1.6129 27.6613 2.74194 25.4839 4.67742 24.2742C5.48387 23.7097 6.53226 23.3065 7.5 23.2258L9.03226 22.9839L9.91936 28.7903L14.5968 25.9677L19.2742 28.7903L20.1613 22.9839L21.6935 23.2258C22.4194 23.3065 23.0645 23.5484 23.7097 23.871C22.0161 25.4839 21.0484 27.6613 21.0484 30V33.3064C20.4839 32.7419 19.6774 32.3387 18.7903 32.3387C17.3387 32.3387 16.129 33.3065 15.8065 34.6774L15.5645 35.8065L9.59677 38.4677L9.27419 36.7742C9.59677 36.4516 9.83871 36.0484 9.83871 35.5645V34.9194C9.83871 33.1452 9.51613 31.371 8.95161 29.6774L7.41935 30.1613C7.90323 31.6936 8.14516 33.3065 8.14516 34.8387V35.4839H1.6129V29.9194ZM7.5 37.0968L8.22581 40.6452L16.7742 36.8548L17.2581 35C17.4194 34.3548 18.0645 33.871 18.7097 33.871C19.2742 33.871 19.7581 34.1936 20.0806 34.6774L20.5645 35.5645L22.0968 35.2419C22.6613 35.1613 23.1452 35.2419 23.5484 35.6452C23.9516 35.9677 24.1935 36.4516 24.1935 37.0161C24.1935 37.7419 23.7903 38.3064 23.1452 38.5484L9.27419 44.1129C8.87097 44.2742 8.46774 44.3548 8.06452 44.3548C6.53226 44.3548 5.24194 43.3064 4.91935 41.7742L3.87097 37.0968H7.5ZM4.83871 44.6774C5.72581 45.4839 6.85484 45.9677 8.06452 45.9677C8.70968 45.9677 9.27419 45.8871 9.83871 45.6452L20.9677 41.2097V48.3871H4.83871V44.6774ZM42.3387 47.2581L42.5806 48.3871H28.3871L28.629 47.2581C28.871 45.8871 29.0323 44.5161 29.0323 43.1452C29.0323 42.7419 29.0323 42.3387 29.0323 41.9355L40.1613 46.371C40.7258 46.6129 41.371 46.6936 41.9355 46.6936C42.0161 46.6936 42.1774 46.6936 42.2581 46.6936C42.2581 46.9355 42.3387 47.0968 42.3387 47.2581ZM45.0806 42.5806C44.7581 44.1129 43.4677 45.1613 41.9355 45.1613C41.5323 45.1613 41.129 45.0806 40.7258 44.9194L26.8548 39.3548C26.2097 39.1129 25.8065 38.4677 25.8065 37.8226C25.8065 37.2581 26.0484 36.7742 26.4516 36.4516C26.8548 36.129 27.4194 35.9677 27.9032 36.0484L29.4355 36.371L29.9194 35.4839C30.1613 35 30.7258 34.6774 31.2903 34.6774C32.0161 34.6774 32.5806 35.1613 32.7419 35.8065L33.2258 37.6613L40.4839 40.8871L41.2097 42.9839L42.7419 42.5L41.9355 40.2419L43.9516 30.7258L44.6774 31.7742C45.1613 32.5806 46.0484 33.0645 47.0161 33.0645H47.1774L45.0806 42.5806Z" fill="#DE383F"/>
</svg>

<svg width="50" height="50" fill="none" xmlns="http://www.w3.org/2000/svg"><path d="M12.097 12.903a.806.806 0 100-1.613.806.806 0 000 1.613zM16.936 12.903a.806.806 0 100-1.613.806.806 0 000 1.613zM17.58 15.08l.081-.16-1.451-.726-.081.16c-.323.646-.887.969-1.613.969s-1.29-.404-1.613-.968l-.08-.162-1.452.726.08.162c.565 1.129 1.775 1.855 3.065 1.855s2.5-.726 3.065-1.855zM33.065 12.903a.806.806 0 100-1.613.806.806 0 000 1.613zM37.903 12.903a.806.806 0 100-1.613.806.806 0 000 1.613zM37.097 14.355c-.323.645-.887.968-1.613.968s-1.29-.404-1.613-.968l-.08-.162-1.452.726.08.162c.565 1.129 1.775 1.855 3.065 1.855s2.5-.726 3.064-1.855l.081-.162-1.452-.726-.08.162z" fill="#DE383F"/><path d="M50 30.242c0-.403-.08-.726-.242-1.13l-.968-2.176c-.806-1.775-2.258-3.226-4.032-3.952a3.671 3.671 0 00.403-1.613V9.677C45.161 4.355 40.806 0 35.484 0c-5.323 0-9.678 4.355-9.678 9.677v11.694c0 .323.081.565.081.806a8.79 8.79 0 00-.887.484c-.968-.564-2.097-1.048-3.226-1.21l-3.387-.483-.484-1.855c1.371-.887 2.42-2.258 2.823-3.871h.242a3.235 3.235 0 003.226-3.226c0-.726-.242-1.451-.726-2.016l.564-2.177c.08-.242.162-.646.162-1.049 0-2.016-1.21-3.79-3.146-4.435L15.726.403C15 .161 14.274 0 13.468 0 11.37 0 9.355 1.048 8.065 2.742l-.404.484C6.048 3.468 4.84 4.839 4.84 6.452c0 1.29.484 2.903.726 3.629a3.098 3.098 0 00-.726 2.016 3.235 3.235 0 003.226 3.226h.241c.404 1.613 1.452 2.983 2.823 3.87l-.484 1.855-3.387.484c-1.21.162-2.42.645-3.468 1.371C1.371 24.436 0 27.097 0 29.92v5.565c0 .887.726 1.613 1.613 1.613h.645l.968 4.516V50h41.29l-.645-3.065c0-.16-.08-.403-.08-.564 1.37-.565 2.5-1.855 2.822-3.387l2.339-10.565c.645-.564 1.048-1.29 1.048-2.177zm-2.661-2.661l.968 2.177c.08.161.08.323.08.484 0 .645-.564 1.21-1.21 1.21h-.16c-.404 0-.807-.162-.969-.565l-1.29-1.855h-.806c-.887 0-1.694-.564-1.936-1.451-.08-.162-.08-.404-.08-.645V25a4.255 4.255 0 001.774-.645c1.613.403 2.984 1.613 3.629 3.226zm-6.774 11.613l-5.968-2.662-.242-1.129c-.323-1.37-1.613-2.338-2.984-2.338-1.13 0-2.097.564-2.661 1.532l-.484-.08c-.242-.082-.484-.082-.726-.082-.08-.403-.08-.887-.08-1.37 0-2.017.564-3.871 1.612-5.565l1.694-2.742c.161-.08.322-.08.403-.161 1.13 1.29 2.661 2.016 4.355 2.016 1.693 0 3.226-.726 4.355-2.016l.484.242v2.177c0 .403.08.807.16 1.13.324.967 1.05 1.773 1.936 2.177l-1.854 8.87zm-5.081-20.646a4.853 4.853 0 01-4.839-4.838v-3.387c1.936-.404 3.71-1.21 5.242-2.42a9.367 9.367 0 004.436 2.5v3.307a4.853 4.853 0 01-4.84 4.838zm0 1.613c.645 0 1.21-.08 1.855-.242l.242 1.613c.08.807.483 1.532.967 2.097A4.166 4.166 0 0135.484 25a4.166 4.166 0 01-3.065-1.371c.484-.565.888-1.29.968-2.097l.242-1.613c.645.162 1.21.242 1.855.242zm8.064-10.484v11.694a1.997 1.997 0 01-2.016 2.016c-1.21 0-2.258-.887-2.42-2.097l-.322-2.096a6.367 6.367 0 003.065-5.484V8.952l-.645-.081a7.11 7.11 0 01-6.049-5.726l-.322-1.532h.645c4.435 0 8.064 3.629 8.064 8.064zm-16.129 0c0-3.71 2.5-6.774 5.887-7.742l.323 1.533a9.939 9.939 0 001.29 3.145c-1.29 1.048-2.903 1.774-4.516 2.097l-1.37.322v4.678a6.367 6.367 0 003.064 5.483l-.323 2.097c-.161 1.21-1.21 2.097-2.42 2.097a1.997 1.997 0 01-2.015-2.016V9.677h.08zm-.806 13.952a3.356 3.356 0 002.097 1.29l-1.049 1.694a12.235 12.235 0 00-1.855 6.452c0 .564.081 1.21.162 1.774-.162.08-.323.242-.484.322-.08 0-.08.08-.08.08-.162-.322-.485-.644-.727-.886a3.097 3.097 0 00-2.016-.726v-3.79c0-2.258 1.13-4.436 3.065-5.645.242-.162.564-.404.887-.565zm.726 17.661c.08.645.08 1.29.08 1.855 0 1.29-.16 2.58-.403 3.79l-.242 1.452h-4.193v-7.822l1.129-.484c.322-.162.645-.323.887-.565.322.645.887 1.13 1.613 1.371l1.129.403zm-8.871-18.629l-.484 3.387-2.097-1.29 2.177-2.177.404.08zm2.5-8.951v-3.226c.887 0 1.613.726 1.613 1.613s-.726 1.613-1.613 1.613zM8.065 4.839h.403l.887-1.13c.968-1.29 2.5-2.096 4.113-2.096.564 0 1.21.08 1.774.322l5.322 1.936c1.21.403 2.017 1.613 2.017 2.903 0 .242 0 .484-.081.726l-.403 1.532c-.404-.08-.726-.161-1.13-.161h-3.064a7.256 7.256 0 01-4.596-1.613 1.52 1.52 0 00.16-.645l.243-.807-1.613-.322-.162.887c-.322 1.452-1.612 2.5-3.064 2.5h-.806c-.404 0-.807.08-1.13.242-.241-.726-.483-1.855-.483-2.661 0-.887.725-1.613 1.613-1.613zm-1.613 7.258c0-.887.725-1.613 1.613-1.613v3.226a1.618 1.618 0 01-1.613-1.613zm3.225 1.613v-3.307c1.13-.161 2.178-.806 2.904-1.693a9.22 9.22 0 005.403 1.774h1.37v3.226a4.853 4.853 0 01-4.838 4.838 4.853 4.853 0 01-4.839-4.838zm4.84 6.451c.644 0 1.29-.08 1.935-.322l.403 1.693-2.339 2.339-2.339-2.339.404-1.693c.645.242 1.29.322 1.935.322zm-3.55 2.5l2.178 2.178-2.097 1.29-.483-3.387.403-.08zM1.614 29.92c0-2.258 1.129-4.435 3.064-5.645.807-.564 1.855-.968 2.823-1.048l1.532-.242.887 5.806 4.678-2.822 4.677 2.822.887-5.806 1.532.242c.726.08 1.371.322 2.017.645-1.694 1.613-2.662 3.79-2.662 6.129v3.306c-.564-.564-1.37-.967-2.258-.967-1.451 0-2.661.968-2.983 2.338l-.242 1.13-5.968 2.66-.323-1.693c.323-.322.565-.726.565-1.21v-.645c0-1.774-.323-3.548-.887-5.242l-1.533.484c.484 1.533.726 3.145.726 4.678v.645H1.613v-5.565zM7.5 37.097l.726 3.548 8.548-3.79.484-1.855c.161-.645.806-1.129 1.452-1.129.564 0 1.048.323 1.37.806l.485.888 1.532-.323c.564-.08 1.048 0 1.451.403.404.323.646.807.646 1.371 0 .726-.404 1.29-1.049 1.532l-13.87 5.565a3.236 3.236 0 01-1.21.242c-1.533 0-2.823-1.049-3.146-2.58l-1.048-4.678H7.5zm-2.661 7.58c.887.807 2.016 1.29 3.226 1.29.645 0 1.21-.08 1.774-.322l11.129-4.435v7.177H4.838v-3.71zm37.5 2.581l.242 1.13H28.387l.242-1.13c.242-1.37.403-2.742.403-4.113v-1.21l11.13 4.436c.564.242 1.209.323 1.773.323h.323c0 .241.08.403.08.564zm2.742-4.677c-.323 1.532-1.613 2.58-3.146 2.58-.403 0-.806-.08-1.21-.242l-13.87-5.564c-.645-.242-1.049-.887-1.049-1.532 0-.565.242-1.049.646-1.371.403-.323.967-.484 1.451-.404l1.533.323.483-.887c.242-.484.807-.807 1.371-.807.726 0 1.29.484 1.452 1.13l.484 1.854 7.258 3.226.726 2.097 1.532-.484-.806-2.258 2.016-9.516.725 1.048c.484.807 1.371 1.29 2.34 1.29h.16l-2.096 9.517z" fill="#DE383F"/></svg>
